ukui-icon-theme-default/scalable/actions/document-save-symbolic.svg

<?xml version="1.0" encoding="iso-8859-1"?>
<!-- Generator: Adobe Illustrator 24.0.0, SVG Export Plug-In . SVG Version: 6.00 Build 0)  -->
<svg version="1.1" id="&#x56FE;&#x5C42;_27" xmlns="http://www.w3.org/2000/svg" xmlns:xlink="http://www.w3.org/1999/xlink"
	 x="0px" y="0px" viewBox="0 0 16 16" style="enable-background:new 0 0 16 16;" xml:space="preserve">
<title>16</title>
<g id="_16">
	<path style="fill:#808080;" d="M13,1H3C1.895,1,1,1.895,1,3v10c0,1.105,0.895,2,2,2h10c1.105,0,2-0.895,2-2V3
		C15,1.895,14.105,1,13,1z M14,13c0,0.552-0.448,1-1,1H3c-0.552,0-1-0.448-1-1V3c0-0.552,0.448-1,1-1h10c0.552,0,1,0.448,1,1V13z"/>
	<path style="fill:#808080;" d="M14,10v3c0,0.552-0.448,1-1,1h-1c0.552,0,1-0.448,1-1v-3H14z"/>
	<path style="fill:#808080;" d="M4,14H3c-0.552,0-1-0.448-1-1v-3h1v3C3,13.552,3.448,14,4,14z"/>
	<rect x="2" y="8" style="fill:#808080;" width="12" height="2"/>
	<rect x="5" y="12" style="fill:#808080;" width="2" height="2"/>
</g>
</svg>

<svg id="保存" xmlns="http://www.w3.org/2000/svg" viewBox="0 0 16 16"><defs><style>.cls-1,.cls-3{opacity:0.75;isolation:isolate;}.cls-2,.cls-3{fill:#1f2022;}</style></defs><title>document-save-as-symbolic</title><g class="cls-1"><path class="cls-2" d="M13,1H3A2,2,0,0,0,1,3V13a2,2,0,0,0,2,2H13a2,2,0,0,0,2-2V3A2,2,0,0,0,13,1Zm1,12a1,1,0,0,1-1,1H3a1,1,0,0,1-1-1V3A1,1,0,0,1,3,2H13a1,1,0,0,1,1,1Z"/><path class="cls-2" d="M14,10v3a1,1,0,0,1-1,1H12a1,1,0,0,0,1-1V10Z"/><path class="cls-2" d="M4,14H3a1,1,0,0,1-1-1V10H3v3A1,1,0,0,0,4,14Z"/></g><rect class="cls-3" x="2" y="8" width="12" height="2"/><rect class="cls-3" x="5" y="12" width="2" height="2"/></svg>
